X: 2
M: 6/8
L: 1/8
Q: "Sostenuto."
K: F
V: 1
[|\
[d2F2] [dF] [c2F2] [A/-F/-] [A/F/] | [B2E2] [B/-E/-] [B/E/] [BG][AF] [GE] | [A2F2] [cA] [c3A3] | A3 GA G & F3 E2E | [F3-C3-] [F2C2]z |]
V: 2 clef=bass middle=D
[|\
c3 Bc B & F3 C2C | [A3-F3-] [A2F2][AF] | [c2F2][cF] ([BC-] [cC]) [BC] | [A3-F3-] [A2F2][AF] | [AF]>[AF] [BF] [c-F-] [cF] [cF] |


